dist/svg/rollback.svg

<!-- Generated by Trend Micro Style Portal -->
<svg version="1.1" xmlns="http://www.w3.org/2000/svg" width="16" height="16" viewBox="0 0 16 16">
  <title>rollback</title>
  <path fill="rgb(34,34,34)" d="M12.2 2.8c-1.2-1.2-2.7-1.8-4.3-1.8s-3.2 0.6-4.4 1.8l-0.3 0.4-2.2-2.2v6h6l-2.4-2.4 0.4-0.4c0.7-0.8 1.8-1.2 2.9-1.2s2.1 0.4 2.9 1.2 1.2 1.8 1.2 2.9-0.4 2.1-1.2 2.9l-4.3 4.3 1.4 1.4 4.3-4.3c1.2-1.2 1.8-2.7 1.8-4.3s-0.6-3.1-1.8-4.3z"></path>
</svg>

<svg width="16" height="16" viewBox="0 0 16 16" fill="rgb(34, 34, 34)" xmlns="http://www.w3.org/2000/svg"><title>rollback</title><path d="M12.2 2.8C11 1.6 9.5 1 7.9 1C6.3 1 4.7 1.6 3.5 2.8L3.2 3.2L1 1V7H7L4.6 4.6L5 4.2C5.7 3.4 6.8 3 7.9 3C9 3 10 3.4 10.8 4.2C11.6 5 12 6 12 7.1C12 8.2 11.6 9.2 10.8 10L6.5 14.3L7.9 15.7L12.2 11.4C13.4 10.2 14 8.7 14 7.1C14 5.5 13.4 4 12.2 2.8Z" fill="rgb(34, 34, 34)" fill-opacity="1.00"/></svg>
